X: 29761
T: Ó Ghlúin Go Glúin
R: slide
M: 12/8
K: Dmajor
"D" F2 A ABA"G" G2 A B2 c|"D" d2 A ABA d2 A f2 A|
F2 A ABA"G" G2 A B2 c||1 "D" d2 A"A7" f2 e"D" d3 d2 A:|2 "D" d2 A"A7" f2 e"D" d3 d2 f||
"G" g3"D" fgf"A" e2 d B2 c|"D" d2 A ABA d2 A f2 A|
"G" g3"D" fgf"A" e2 d B2 c|"D" d2 f a2 f"A7" e3 e2 f|
"G" g3"D" fgf"A" e2 d B2 c|"D" d2 A ABA d2 A f2 A|
"D" F2 A ABA"G" G2 A B2 c|"D" d2 A"A" f2 e"D" d3- d3||

